src/assets/icon_winner.svg

<svg xmlns="http://www.w3.org/2000/svg" xmlns:xlink="http://www.w3.org/1999/xlink" version="1.1" x="0px" y="0px" viewBox="0 0 24 30" enable-background="new 0 0 24 24" xml:space="preserve"><g style="fill:#F5F2ED;"><g><path  d="M6.5,16h-4C2.224,16,2,16.224,2,16.5v4C2,20.776,2.224,21,2.5,21h4C6.776,21,7,20.776,7,20.5v-4C7,16.224,6.776,16,6.5,16    z M6,20H3v-3h3V20z"/><path d="M14.5,12h-5C9.224,12,9,12.224,9,12.5v8C9,20.776,9.224,21,9.5,21h5c0.276,0,0.5-0.224,0.5-0.5v-8    C15,12.224,14.776,12,14.5,12z M14,20h-4v-7h4V20z"/><path d="M21.5,18h-4c-0.276,0-0.5,0.224-0.5,0.5v2c0,0.276,0.224,0.5,0.5,0.5h4c0.276,0,0.5-0.224,0.5-0.5v-2    C22,18.224,21.776,18,21.5,18z M21,20h-3v-1h3V20z"/><path d="M10.5,9C10.224,9,10,9.224,10,9.5s0.224,0.5,0.5,0.5h3c0.276,0,0.5-0.224,0.5-0.5S13.776,9,13.5,9h-1V7.911    C13.36,7.632,14,6.662,14,5.5v-2C14,3.224,13.776,3,13.5,3h-3C10.224,3,10,3.224,10,3.5v2c0,1.162,0.64,2.132,1.5,2.411V9H10.5z     M11,5.5V4h2v1.5C13,6.313,12.542,7,12,7S11,6.313,11,5.5z"/></g></g><text x="0" y="39" font-size="5px" font-weight="bold" font-family="'Helvetica Neue', Helvetica, Arial-Unicode, Arial, Sans-serif">Created by Ralf Schmitzer</text><text x="0" y="44"  font-size="5px" font-weight="bold" font-family="'Helvetica Neue', Helvetica, Arial-Unicode, Arial, Sans-serif">from the Noun Project</text></svg>

<svg xmlns="http://www.w3.org/2000/svg" viewBox="0 0 24 30"><g fill="#F5F2ED"><path d="M6.5 16h-4a.5.5 0 0 0-.5.5v4a.5.5 0 0 0 .5.5h4a.5.5 0 0 0 .5-.5v-4a.5.5 0 0 0-.5-.5zM6 20H3v-3h3v3zm8.5-8h-5a.5.5 0 0 0-.5.5v8a.5.5 0 0 0 .5.5h5a.5.5 0 0 0 .5-.5v-8a.5.5 0 0 0-.5-.5zm-.5 8h-4v-7h4v7zm7.5-2h-4a.5.5 0 0 0-.5.5v2a.5.5 0 0 0 .5.5h4a.5.5 0 0 0 .5-.5v-2a.5.5 0 0 0-.5-.5zm-.5 2h-3v-1h3v1zM10.5 9a.5.5 0 0 0 0 1h3a.5.5 0 0 0 0-1h-1V7.911C13.36 7.632 14 6.662 14 5.5v-2a.5.5 0 0 0-.5-.5h-3a.5.5 0 0 0-.5.5v2c0 1.162.64 2.132 1.5 2.411V9h-1zm.5-3.5V4h2v1.5c0 .813-.458 1.5-1 1.5s-1-.687-1-1.5z"/></g><text y="39" font-size="5" font-weight="bold" font-family="'Helvetica Neue', Helvetica, Arial-Unicode, Arial, Sans-serif">Created by Ralf Schmitzer</text><text y="44" font-size="5" font-weight="bold" font-family="'Helvetica Neue', Helvetica, Arial-Unicode, Arial, Sans-serif">from the Noun Project</text></svg>
